src/assets/images/artengo.svg

<svg width="51" height="132" viewBox="0 0 51 132" fill="none" xmlns="http://www.w3.org/2000/svg">
<path d="M46.4928 10.5834V127.397C46.4928 128.887 45.2807 130.113 43.7657 130.113H6.83661C5.34051 130.113 4.10954 128.906 4.10954 127.397V10.5834H46.4928ZM2.23468 8.69687V127.397C2.23468 129.925 4.29892 132 6.85555 132H43.7846C46.3223 132 48.4055 129.944 48.4055 127.397V8.69687H2.23468Z" fill="black"/>
<path d="M21.6272 34.014L23.824 23.7891L26.7215 23.657L28.9751 33.9197L26.7594 33.9951L26.3806 31.769H23.8997L23.4642 33.9951H21.6272V34.014ZM24.2596 30.1278H25.9829L25.036 25.1662L24.2596 30.1278Z" fill="black"/>
<path d="M25.1497 43.2768H24.3543V47.729L22.3279 47.8988V37.5418L24.7898 37.4664C25.9829 37.4664 26.9109 37.7116 27.5927 38.1832C28.2744 38.6549 28.5964 39.3906 28.5964 40.3527C28.5964 40.9941 28.4638 41.5224 28.2176 41.9374C27.9714 42.3524 27.5927 42.692 27.1192 42.975L28.0472 45.22L28.9941 47.4649L27.0056 48.012L25.1497 43.2768ZM25.055 41.7865C25.5284 41.7865 25.9072 41.6922 26.1912 41.4846C26.4564 41.296 26.6079 40.9187 26.6079 40.3527C26.6079 39.5038 26.1912 39.0699 25.339 39.0699H24.3921V41.7676H25.055V41.7865Z" fill="black"/>
<path d="M24.2974 61.7082V52.8792H22.1764L22.3279 51.2568H28.4259L28.2555 52.8792H26.3238V61.5384L24.2974 61.7082Z" fill="black"/>
<path d="M22.896 75.4232V65.0662H28.1797L28.0093 66.6886H24.9413V69.1599H27.1381L27.1192 70.8955H24.9413V73.8008H28.2934L28.1229 75.4232H22.896Z" fill="black"/>
<path d="M26.873 89.308L23.8429 82.8372V89.1382L22.0249 89.2137V78.951L24.1459 78.8755L26.8351 85.0256V79.0453L28.5585 78.8755V89.1382L26.873 89.308Z" fill="black"/>
<path d="M22.7256 101.684C22.2521 100.665 22.0059 99.3632 22.0059 97.7973C22.0059 96.9295 22.1196 96.0806 22.3468 95.2694C22.5741 94.4582 22.9339 93.7979 23.4452 93.2697C23.9566 92.7415 24.6005 92.4774 25.3769 92.4774C26.0587 92.4774 26.6079 92.6471 27.0624 92.9678C27.5169 93.2886 27.8388 93.7225 28.0661 94.2696C28.2744 94.8166 28.388 95.4015 28.388 96.0617L26.4564 96.1938L26.4185 95.9108C26.3617 95.3637 26.267 94.9298 26.1344 94.6091C26.0019 94.2884 25.7367 94.1186 25.358 94.1186C24.8845 94.1186 24.5436 94.4959 24.3353 95.2694C24.127 96.0429 24.0323 96.9295 24.0323 97.9294C24.0323 98.6463 24.0512 99.25 24.1081 99.7405C24.1459 100.231 24.2785 100.665 24.4679 101.042C24.6573 101.419 24.9603 101.608 25.3769 101.608C25.7178 101.608 25.9829 101.401 26.1912 100.967C26.3806 100.552 26.4942 100.023 26.4942 99.4009H25.4716L25.642 97.854H28.4638V102.948L27.6873 103.023L27.2139 101.099C27.1381 101.457 27.0245 101.778 26.9109 102.061C26.7783 102.344 26.57 102.608 26.267 102.853C25.964 103.098 25.5473 103.212 25.0171 103.212C23.9376 103.231 23.199 102.702 22.7256 101.684Z" fill="black"/>
<path d="M22.7635 115.512C22.29 114.512 22.0438 113.191 22.0438 111.607C22.0438 109.909 22.29 108.588 22.8013 107.664C23.3127 106.739 24.127 106.287 25.2633 106.287C27.4222 106.287 28.4827 108.041 28.4827 111.55C28.4827 113.116 28.2365 114.436 27.7631 115.474C27.2707 116.512 26.4374 117.04 25.2254 117.04C24.0702 117.021 23.2559 116.512 22.7635 115.512ZM26.2481 114.436C26.3996 113.795 26.4753 112.833 26.4753 111.531C26.4753 110.494 26.3996 109.626 26.2481 108.947C26.0966 108.268 25.7746 107.909 25.2633 107.909C24.752 107.909 24.4489 108.249 24.2974 108.928C24.1459 109.607 24.0702 110.475 24.0702 111.512C24.0702 112.814 24.1459 113.795 24.2974 114.436C24.4489 115.078 24.7709 115.399 25.2633 115.399C25.7557 115.399 26.0776 115.078 26.2481 114.436Z" fill="black"/>
<path d="M0 0H51V5.35772H0V0Z" fill="black"/>
</svg>

<svg width="51" height="132" fill="none" xmlns="http://www.w3.org/2000/svg"><path d="M46.493 10.583v116.814a2.722 2.722 0 0 1-2.727 2.716H6.836a2.722 2.722 0 0 1-2.726-2.716V10.583h42.383ZM2.235 8.697v118.7c0 2.528 2.064 4.603 4.62 4.603h36.93c2.537 0 4.62-2.056 4.62-4.603V8.697H2.236Z" fill="#000"/><path d="m21.627 34.014 2.197-10.225 2.897-.132 2.254 10.263-2.216.075-.378-2.226H23.9l-.436 2.226h-1.837v.019Zm2.633-3.886h1.723l-.947-4.962-.776 4.962ZM25.15 43.277h-.796v4.452l-2.026.17V37.542l2.462-.076c1.193 0 2.12.246 2.803.717.681.472 1.003 1.208 1.003 2.17 0 .641-.132 1.17-.378 1.584-.247.415-.625.755-1.099 1.038l.928 2.245.947 2.245-1.988.547-1.856-4.735Zm-.095-1.49c.473 0 .852-.095 1.136-.302.265-.189.417-.566.417-1.132 0-.85-.417-1.283-1.269-1.283h-.947v2.698h.663v.018ZM24.297 61.708V52.88h-2.12l.15-1.622h6.099l-.17 1.622h-1.932v8.66l-2.027.17ZM22.896 75.423V65.066h5.284l-.17 1.623H24.94v2.47h2.197l-.019 1.736h-2.178v2.906h3.352l-.17 1.622h-5.227ZM26.873 89.308l-3.03-6.47v6.3l-1.818.076V78.95l2.12-.075 2.69 6.15v-5.98l1.723-.17v10.262l-1.685.17ZM22.726 101.684c-.474-1.019-.72-2.32-.72-3.887 0-.867.114-1.716.34-2.528.228-.81.588-1.471 1.1-2 .51-.528 1.154-.792 1.93-.792.683 0 1.232.17 1.686.49.455.322.777.755 1.004 1.303.208.547.322 1.132.322 1.792l-1.932.132-.037-.283c-.057-.547-.152-.981-.285-1.302-.132-.32-.397-.49-.776-.49-.474 0-.814.377-1.023 1.15-.208.774-.303 1.66-.303 2.66 0 .717.02 1.321.076 1.811.038.491.17.925.36 1.302.19.377.492.566.909.566.34 0 .606-.207.814-.641.19-.415.303-.944.303-1.566h-1.022l.17-1.547h2.822v5.094l-.777.075-.473-1.924c-.076.358-.19.679-.303.962-.133.283-.341.547-.644.792s-.72.359-1.25.359c-1.08.019-1.818-.51-2.291-1.528ZM22.764 115.512c-.474-1-.72-2.321-.72-3.905 0-1.698.246-3.019.757-3.943.512-.925 1.326-1.377 2.462-1.377 2.16 0 3.22 1.754 3.22 5.263 0 1.566-.247 2.886-.72 3.924-.492 1.038-1.326 1.566-2.538 1.566-1.155-.019-1.97-.528-2.462-1.528Zm3.484-1.076c.152-.641.227-1.603.227-2.905 0-1.037-.075-1.905-.227-2.584-.151-.679-.473-1.038-.985-1.038-.511 0-.814.34-.966 1.019-.151.679-.227 1.547-.227 2.584 0 1.302.076 2.283.227 2.924.152.642.474.963.966.963.493 0 .815-.321.985-.963ZM0 0h51v5.358H0V0Z" fill="#000"/></svg>
